dist/svg/static/rotate-image-left-small.svg

<svg xmlns="http://www.w3.org/2000/svg" width="24" height="24" viewBox="0 0 24 24"><g fill="none" stroke="currentColor"><path d="M14.1 1.3L11 4.5l3.1 3.3"/><path d="M22.5 14c-.3-2.4-1.3-5-3.2-6.9-2.1-2.1-4.6-2.6-7.4-2.6H11M2.5 12.5h12c1.1 0 2 .9 2 2v7h-12c-1.1 0-2-.9-2-2v-7z"/></g></svg>

<?xml version="1.0" encoding="UTF-8" standalone="no"?>
<svg width="24px" height="24px" viewBox="0 0 24 24" version="1.1" xmlns="http://www.w3.org/2000/svg" xmlns:xlink="http://www.w3.org/1999/xlink">
    <!-- Generator: sketchtool 46.2 (44496) - http://www.bohemiancoding.com/sketch -->
    <title>rotate-image-left-small</title>
    <desc>Created with sketchtool.</desc>
    <defs></defs>
    <g id="icons-published" stroke="none" stroke-width="1" fill="none" fill-rule="evenodd">
        <g id="briefing" transform="translate(-3236.000000, -1434.000000)"></g>
        <g id="rotate-image-left-small" stroke="#000000">
            <polyline id="Shape" points="14.1 1.3 11 4.5 14.1 7.8"></polyline>
            <path d="M2.5,12.5 L14.5,12.5 C15.6,12.5 16.5,13.4 16.5,14.5 L16.5,21.5 L4.5,21.5 C3.4,21.5 2.5,20.6 2.5,19.5 L2.5,12.5 Z" id="Shape"></path>
            <path d="M22.5,14 C22.2,11.6 21.2,9 19.3,7.1 C17.2,5 14.7,4.5 11.9,4.5 L11,4.5" id="Path"></path>
        </g>
    </g>
</svg>
